img/equipment.svg

<svg width="48" height="48" viewBox="0 0 48 48" fill="none" xmlns="http://www.w3.org/2000/svg">
<g clip-path="url(#clip0)">
<path d="M33.295 48C44.314 48 50.602 35.375 46.967 22.253C43.333 9.13096 33.966 17.326 26.667 5.22596C18.654 -8.06404 1.387 6.33896 0 22.253C0.53 30.835 7.93 48 33.295 48Z" fill="#E6F1F9"/>
<path d="M14.015 14V27.203C12.918 27.836 12 29.03 12 30.363C12 32.362 13.664 34 15.692 34H26.77C28.798 34 30.462 32.361 30.462 30.364C30.4578 29.722 30.2791 29.0932 29.945 28.545L32.5 28.5V30.364C32.5 32.36 33.972 34 36 34V32.5C34.97 32.5 34 31.379 34 30.364V23H32.5V26.756L29.055 26.727L30.461 23.26V21.273H26.77V18.546C26.77 18.032 27.172 17.636 27.693 17.636V15.818C26.175 15.818 24.924 17.05 24.924 18.546V21.273H23.718L20.947 14H14.015ZM15.692 15.818H19.668L21.745 21.273H15.692V15.818ZM15.692 23.091H28.542L27 26.727H15.692V23.091ZM15.692 28.546H26.77C27.801 28.546 28.616 29.349 28.616 30.364C28.616 31.379 27.801 32.182 26.77 32.182H15.692C14.662 32.182 13.846 31.379 13.846 30.364C13.846 29.349 14.662 28.546 15.692 28.546ZM15.692 29.455C15.447 29.455 15.212 29.55 15.04 29.721C14.868 29.892 14.77 30.123 14.77 30.364C14.77 30.605 14.867 30.836 15.04 31.007C15.214 31.1783 15.4483 31.2743 15.6925 31.2743C15.9367 31.2743 16.171 31.1783 16.345 31.007C16.4303 30.9231 16.4981 30.823 16.5443 30.7126C16.5906 30.6022 16.6144 30.4837 16.6144 30.364C16.6144 30.2443 16.5906 30.1258 16.5443 30.0154C16.4981 29.905 16.4303 29.8049 16.345 29.721C16.1707 29.5501 15.9361 29.4545 15.692 29.455ZM19.385 29.455C19.1408 29.4543 18.9062 29.5499 18.732 29.721C18.6468 29.805 18.5791 29.9051 18.533 30.0155C18.4868 30.1259 18.463 30.2443 18.463 30.364C18.463 30.4837 18.4868 30.6021 18.533 30.7125C18.5791 30.8229 18.6468 30.923 18.732 31.007C18.906 31.1783 19.1403 31.2743 19.3845 31.2743C19.6287 31.2743 19.863 31.1783 20.037 31.007C20.1223 30.9231 20.1901 30.823 20.2363 30.7126C20.2826 30.6022 20.3064 30.4837 20.3064 30.364C20.3064 30.2443 20.2826 30.1258 20.2363 30.0154C20.1901 29.905 20.1223 29.8049 20.037 29.721C19.8629 29.5503 19.6288 29.4548 19.385 29.455ZM23.077 29.455C22.8328 29.4543 22.5982 29.5499 22.424 29.721C22.3388 29.805 22.2711 29.9051 22.225 30.0155C22.1788 30.1259 22.155 30.2443 22.155 30.364C22.155 30.4837 22.1788 30.6021 22.225 30.7125C22.2711 30.8229 22.3388 30.923 22.424 31.007C22.598 31.1786 22.8326 31.2748 23.077 31.2748C23.3214 31.2748 23.556 31.1786 23.73 31.007C23.8153 30.9231 23.8831 30.823 23.9293 30.7126C23.9756 30.6022 23.9994 30.4837 23.9994 30.364C23.9994 30.2443 23.9756 30.1258 23.9293 30.0154C23.8831 29.905 23.8153 29.8049 23.73 29.721C23.5557 29.5501 23.3211 29.4545 23.077 29.455ZM26.769 29.455C26.5248 29.4543 26.2902 29.5499 26.116 29.721C26.0308 29.805 25.9631 29.9051 25.917 30.0155C25.8708 30.1259 25.847 30.2443 25.847 30.364C25.847 30.4837 25.8708 30.6021 25.917 30.7125C25.9631 30.8229 26.0308 30.923 26.116 31.007C26.29 31.1786 26.5246 31.2748 26.769 31.2748C27.0134 31.2748 27.248 31.1786 27.422 31.007C27.5073 30.9231 27.5751 30.823 27.6213 30.7126C27.6676 30.6022 27.6914 30.4837 27.6914 30.364C27.6914 30.2443 27.6676 30.1258 27.6213 30.0154C27.5751 29.905 27.5073 29.8049 27.422 29.721C27.2477 29.5501 27.0131 29.4545 26.769 29.455Z" fill="#036FC7"/>
</g>
<defs>
<clipPath id="clip0">
<rect width="48" height="48" fill="white"/>
</clipPath>
</defs>
</svg>

<svg width="48" height="48" fill="none" xmlns="http://www.w3.org/2000/svg"><g clip-path="url(#clip0)"><path d="M33.295 48c11.019 0 17.307-12.625 13.672-25.747-3.634-13.122-13.001-4.927-20.3-17.027C18.654-8.064 1.387 6.339 0 22.253.53 30.835 7.93 48 33.295 48z" fill="#E6F1F9"/><path d="M14.015 14v13.203C12.918 27.836 12 29.03 12 30.363 12 32.362 13.664 34 15.692 34H26.77c2.028 0 3.692-1.639 3.692-3.636a3.54 3.54 0 00-.517-1.819L32.5 28.5v1.864C32.5 32.36 33.972 34 36 34v-1.5c-1.03 0-2-1.121-2-2.136V23h-1.5v3.756l-3.445-.029 1.406-3.467v-1.987H26.77v-2.727c0-.514.402-.91.923-.91v-1.818c-1.518 0-2.769 1.232-2.769 2.728v2.727h-1.206L20.947 14h-6.932zm1.677 1.818h3.976l2.077 5.455h-6.053v-5.455zm0 7.273h12.85L27 26.727H15.692v-3.636zm0 5.455H26.77c1.031 0 1.846.803 1.846 1.818 0 1.015-.815 1.818-1.846 1.818H15.692c-1.03 0-1.846-.803-1.846-1.818 0-1.015.816-1.818 1.846-1.818zm0 .909a.924.924 0 00-.652.266.904.904 0 000 1.286.93.93 0 001.504-.294.901.901 0 00-.199-.992.93.93 0 00-.653-.266zm3.693 0a.928.928 0 00-.653.266.901.901 0 000 1.286.93.93 0 001.504-.294.901.901 0 00-.199-.992.93.93 0 00-.652-.266zm3.692 0a.928.928 0 00-.653.266.901.901 0 000 1.286.93.93 0 001.505-.294.901.901 0 00-.199-.992.93.93 0 00-.653-.266zm3.692 0a.928.928 0 00-.653.266.901.901 0 000 1.286.93.93 0 001.505-.294.901.901 0 00-.199-.992.93.93 0 00-.653-.266z" fill="#036FC7"/></g><defs><clipPath id="clip0"><path fill="#fff" d="M0 0h48v48H0z"/></clipPath></defs></svg>
